build/communication/OdnoklassnikiSolid.svg

<svg xmlns="http://www.w3.org/2000/svg" fill="none" viewBox="0 0 24 24" focusable="false"><path d="M0 0H24V24H0z"/><path fill="#74767B" d="M11.993 5.72259C13.0537 5.72259 13.9165 6.58535 13.9165 7.64602C13.9165 8.70579 13.0535 9.56855 11.993 9.56855C10.933 9.56855 10.0701 8.70579 10.0701 7.64602C10.0698 6.58513 10.9333 5.72259 11.993 5.72259ZM11.993 12.2898C14.5551 12.2898 16.6386 10.207 16.6386 7.64602C16.6386 5.08375 14.5553 3 11.993 3C9.43121 3 7.34746 5.08397 7.34746 7.64602C7.34746 10.207 9.43121 12.2898 11.993 12.2898ZM13.8724 16.0791C14.835 15.8599 15.7341 15.4876 16.5699 14.9622C16.7226 14.866 16.8512 14.7444 16.9555 14.5971C17.0599 14.4499 17.1321 14.2883 17.1721 14.1124C17.2122 13.9364 17.217 13.7595 17.1867 13.5816C17.1564 13.4037 17.0932 13.2384 16.9971 13.0856C16.9011 12.9327 16.7795 12.8041 16.6322 12.6996C16.485 12.5951 16.3234 12.5228 16.1474 12.4827C15.9714 12.4426 15.7944 12.4377 15.6164 12.468C15.4385 12.4984 15.2731 12.5616 15.1203 12.6578C13.2171 13.8543 10.7676 13.8535 8.86597 12.6578C8.71323 12.5616 8.54788 12.4983 8.36993 12.468C8.19198 12.4376 8.015 12.4425 7.839 12.4826C7.66299 12.5227 7.50139 12.595 7.35419 12.6995C7.20698 12.804 7.08541 12.9327 6.98946 13.0856C6.89334 13.2383 6.83008 13.4036 6.7997 13.5815C6.76932 13.7594 6.77413 13.9363 6.81412 14.1122C6.85411 14.2882 6.92624 14.4498 7.03051 14.597C7.13479 14.7443 7.26327 14.866 7.41595 14.9622C8.25164 15.4874 9.15065 15.8597 10.113 16.0791L7.51601 18.6765C7.38851 18.8041 7.29028 18.9513 7.22132 19.1181C7.15236 19.2848 7.11792 19.4584 7.118 19.6388C7.11807 19.8193 7.15266 19.9928 7.22176 20.1595C7.29086 20.3262 7.38921 20.4733 7.51682 20.6009C7.64443 20.7284 7.79158 20.8267 7.95828 20.8958C8.12499 20.9648 8.29856 20.9993 8.47899 20.9994C8.65942 20.9994 8.833 20.9649 8.99971 20.8959C9.16642 20.8268 9.31359 20.7286 9.44122 20.601L11.9926 18.0492L14.5455 20.6012C14.673 20.7289 14.82 20.8273 14.9867 20.8964C15.1533 20.9655 15.3268 21 15.5072 21C15.6876 21 15.8611 20.9655 16.0278 20.8964C16.1944 20.8273 16.3415 20.7289 16.4689 20.6012C16.5968 20.4738 16.6953 20.3267 16.7645 20.16C16.8337 19.9932 16.8683 19.8196 16.8683 19.6391C16.8683 19.4586 16.8337 19.2849 16.7645 19.1182C16.6953 18.9515 16.5968 18.8044 16.4689 18.6769L13.8724 16.0791Z"/></svg>

<svg xmlns="http://www.w3.org/2000/svg" fill="none" viewBox="0 0 24 24" focusable="false"><path fill="none" d="M0 0h24v24H0z"/><path fill="#74767B" d="M11.99 5.72a1.92 1.92 0 1 1-1.92 1.92c-.01-1.06.86-1.92 1.92-1.92m0 6.56c2.56 0 4.64-2.08 4.64-4.64S14.55 3 11.99 3 7.34 5.08 7.34 7.64s2.09 4.64 4.65 4.64m1.88 3.79c.96-.22 1.86-.59 2.69-1.11.16-.1.29-.22.39-.37s.18-.31.22-.48c.04-.18.04-.36.01-.53-.03-.18-.09-.35-.19-.5-.09-.15-.22-.28-.36-.39-.15-.1-.31-.17-.49-.21-.17-.04-.35-.05-.53-.02s-.34.1-.49.19a5.89 5.89 0 0 1-6.26 0c-.15-.09-.32-.16-.5-.19a1.4 1.4 0 0 0-.53.02q-.255.06-.48.21c-.15.11-.27.24-.37.39-.09.15-.15.32-.19.5a1.36 1.36 0 0 0 .24 1.01c.1.15.23.27.38.37q1.26.78 2.7 1.11l-2.6 2.6c-.13.13-.22.28-.29.44-.07.17-.11.34-.11.52s.04.36.11.52c.07.17.16.32.29.45.13.12.28.22.44.29.17.07.34.1.52.1s.36-.03.52-.1c.17-.07.32-.17.45-.29l2.55-2.56 2.55 2.56c.13.12.28.22.44.29.17.07.34.11.52.11s.36-.04.52-.11c.17-.07.32-.17.44-.29.13-.13.23-.28.3-.44.07-.17.1-.35.1-.53s-.03-.35-.1-.52c-.07-.16-.17-.31-.3-.44z"/></svg>
